dist/svgs/evernote.svg

<svg xmlns="http://www.w3.org/2000/svg" viewBox="0 0 512 512"><path d="M335 247q3 0 14.5 2t23.5 4q14 3 32 5-8-12-16-22-7-8-15-15t-15-7q-8 0-12 5.5t-7 11.5q-4 7-5 16zM437 69q3 6 10 15t14 32.5 12 67 5 117.5-16.5 116.5T426 481q-23 25-51 31h-57q-13 0-26.5-3.5t-25-12.5-19-24-7.5-38 12.5-35.5T281 380q18-7 42-8v40h-5q-2 0-6-.5t-8-.5q-8 0-13.5 5t-5.5 19q0 13 9 24 4 5 9 9h55q10 0 15.5-4.5t8.5-9.5q4-6 4-15v-47q0-20-18.5-35T316 342q-17 0-30-8t-23-19q-11-12-20-28v58q0 2-4 10t-16.5 15.5T187 382t-60-2q-32-4-51-29t-29-55.5-13.5-60T30 191q0-14 4.5-25t9.5-19q6-9 14-14h100l22-22V39q0-7 .5-14t4-12.5 13-9T225 0q17 0 30.5 5.5T277 18q10 8 16 18h63q9 0 21.5 3t24.5 8 22 10.5T437 69zm-301 42H52L158 6v84z"/></svg>

<?xml version="1.0" encoding="UTF-8" standalone="no"?><svg   xmlns:svg="http://www.w3.org/2000/svg"   xmlns="http://www.w3.org/2000/svg"   version="1.1"   width="512"   height="512"   viewBox="0 0 512 512">  <path     d="M335 247Q338 247 349.5 249T373 253Q387 256 405 258Q397 246 389 236Q382 228 374 221T359 214Q351 214 347 219.5T340 231Q336 238 335 247zM437 69Q440 75 447 84T461 116.5T473 183.5T478 301T461.5 417.5T426 481Q403 506 375 512H318Q305 512 291.5 508.5T266.5 496T247.5 472T240 434T252.5 398.5T281 380Q299 373 323 372V412H318Q316 412 312 411.5T304 411Q296 411 290.5 416T285 435Q285 448 294 459Q298 464 303 468H358Q368 468 373.5 463.5T382 454Q386 448 386 439V392Q386 372 367.5 357T316 342Q299 342 286 334T263 315Q252 303 243 287V345Q243 347 239 355T222.5 370.5T187 382T127 380Q95 376 76 351T47 295.5T33.5 235.5T30 191Q30 177 34.5 166T44 147Q50 138 58 133H158L180 111V39Q180 32 180.5 25T184.5 12.5T197.5 3.5T225 0Q242 0 255.5 5.5T277 18Q287 26 293 36H356Q365 36 377.5 39T402 47T424 57.5T437 69zM136 111H52L158 6V90z"     id="evernote" /></svg>
